!!!COM: Antonio Caldara (1670-1736)
!!!OPR: Divertimenti musicali
!!!OTL: Kanon im Einklang
!!!YOR: From "Corona; Werkreihe fuer Kammerorchester" Nr. 105
!!!YOR: Edited by Adolf Hoffman.
!!!YOR: From "Ars Canonica, Series V" Canon No. 26
!!!YOR: Moeseler Verlag Wolfenbettel, 1969.
!! Cantus Firmus is marked "CF"
**kern	**kern	**kern	**kern
*conseq	*guida	*CF	*CFbackground
*k[b-]	*k[b-]	*k[b-]	*k[b-]
*M3/4	*M3/4	*M3/4	*M3/4
2r	4r	2f	2f
.	4ff	.	.
=1	=1	=1	=1
2.r	4dd	2.g	2.g
.	8dd	.	.
.	8cc	.	.
.	8dd	.	.
.	8ee	.	.
=2	=2	=2	=2
2r	4ff	2.a	2.a
.	4cc	.	.
4ff	[4cc	.	.
=3	=3	=3	=3
4dd	4cc]	2.b-	2.b-
8dd	4b-	.	.
8cc	.	.	.
8dd	4b-	.	.
8ee	.	.	.
=4	=4	=4	=4
4ff	8a	2.cc	2.cc
.	8g	.	.
4cc	4f	.	.
[4cc	4a	.	.
=5	=5	=5	=5
4cc]	4.b-	2.dd	2.dd
4b-	.	.	.
.	8cc	.	.
4b-	8dd	.	.
.	8ee	.	.
=6	=6	=6	=6
8a	4.ff	2cc	2.cc
8g	.	.	.
4f	.	.	.
.	8ee	.	.
4r	8ff	4b-	.
.	8gg	.	.
=7	=7	=7	=7
2r	8aa	2a	2.a
.	8gg	.	.
.	8ff	.	.
.	8ee	.	.
4a	8dd	4a	.
.	8cc	.	.
=8	=8	=8	=8
4.b-	8dd	2.g	2.g
.	8cc	.	.
.	2b-	.	.
8cc	.	.	.
8dd	.	.	.
8ee	.	.	.
=9	=9	=9	=9
4ff;	4a;	4f;	4f;
==	==	==	==
*-	*-	*-	*-
!!!CDT: 1670///-1736//
!!!OCY: Italia
!!!ODT: 1729
!!!AFR: cantus firmus canon
!!!AST: polyphony
!!!AMT: simple triple
!!!AIN: vox
!!!YEP: David Huron and Denis Collins
!!!YEN: Canada
!!!EEV: 1.0
!!!RDT: 1995 April 29
!!!YED: 1995 August 31
